minus-circle-off-outline.svg

<svg fill="currentColor" viewBox="0 0 24 24"><path d="M22.1 21.5 2.4 1.7 1.1 3l3 3C2.8 7.6 2 9.7 2 12c0 5.5 4.5 10 10 10 2.3 0 4.4-.8 6-2.1l2.8 2.8zM12 20c-4.4 0-8-3.6-8-8 0-1.7.6-3.3 1.5-4.6L9.1 11H7v2h4.1l5.5 5.5c-1.3.9-2.9 1.5-4.6 1.5M8.2 5 6.7 3.5C8.3 2.6 10.1 2 12 2c5.5 0 10 4.5 10 10 0 1.9-.6 3.7-1.5 5.3L19 15.8c.6-1.1 1-2.4 1-3.8 0-4.4-3.6-8-8-8-1.4 0-2.7.4-3.8 1m8 8-2-2H17v2z"/></svg>

<svg  viewBox="0 0 24 24" fill="currentColor"><path  d="M22.1 21.5L2.4 1.7L1.1 3L4.1 6C2.8 7.6 2 9.7 2 12C2 17.5 6.5 22 12 22C14.3 22 16.4 21.2 18 19.9L20.8 22.7L22.1 21.5M12 20C7.6 20 4 16.4 4 12C4 10.3 4.6 8.7 5.5 7.4L9.1 11H7V13H11.1L16.6 18.5C15.3 19.4 13.7 20 12 20M8.2 5L6.7 3.5C8.3 2.6 10.1 2 12 2C17.5 2 22 6.5 22 12C22 13.9 21.4 15.7 20.5 17.3L19 15.8C19.6 14.7 20 13.4 20 12C20 7.6 16.4 4 12 4C10.6 4 9.3 4.4 8.2 5M16.2 13L14.2 11H17V13H16.2Z"/></svg>
